src/16/panel/google-music-manager-panel.svg

<svg xmlns="http://www.w3.org/2000/svg" width="16" height="16" version="1">
 <defs>
  <style id="current-color-scheme" type="text/css">
   .ColorScheme-Text { color:#dfdfdf; } .ColorScheme-Highlight { color:#4285f4; }
  </style>
 </defs>
 <path style="fill:currentColor" class="ColorScheme-Text" d="M 8,1 C 4.134,1 1,4.134 1,8 V 9.361 C 0.35712,10.09 0.00164,10.778 0,11.75 0,13.959 1.7909,15 4,15 H 5 V 8 H 4 C 3.6624,8.002 3.3264,8.0466 3,8.133 V 8 C 3,5.23 5.23,3 8,3 10.77,3 13,5.23 13,8 V 8.131 C 12.674,8.0453 12.338,8.0013 12,8 H 11 V 15 H 12 C 14.209,15 16,13.959 16,11.75 15.998,10.778 15.643,10.09 15,9.361 V 8 C 15,4.1342 11.866,1.0002 8,1.0002 Z"/>
</svg>

<svg xmlns="http://www.w3.org/2000/svg" width="16" height="16" version="1"><defs><style id="current-color-scheme" type="text/css"></style></defs><path d="M8 1a7 7 0 0 0-7 7v1.361c-.643.729-.998 1.417-1 2.389C0 13.959 1.79 15 4 15h1V8H4a4 4 0 0 0-1 .133V8c0-2.77 2.23-5 5-5s5 2.23 5 5v.131A3.993 3.993 0 0 0 12 8h-1v7h1c2.209 0 4-1.041 4-3.25-.002-.972-.357-1.66-1-2.389V8a7 7 0 0 0-7-7z" fill="currentColor" color="#bebebe"/></svg>
